IMB-X-Files/The-Ambassadors-Assets/6616ae42267044b470829140_dtcc.svg

<svg fill="none" height="30" viewBox="0 0 59 30" width="59" xmlns="http://www.w3.org/2000/svg"><g fill="#fff"><path d="m16.2671 3.52959c-.7978-.7333-1.7452-1.29061-2.8452-1.67487-1.0999-.38131-2.2967-.58077-3.58731-.59837l-8.5386.00586h-.885834v5.83418h6.145094l3.17961-.00294c.89174 0 1.61034.26106 2.15294.77731.5427.51918.8125 1.30235.8125 2.35534v9.6474c0 .877-.2669 1.6103-.8007 2.1999-.5339.5896-1.2554.8858-2.16474.8858h-3.17961v-10.8294h-6.145094v15.5314 1.1381h1.519404v-.0059h7.9285c1.29064-.0147 2.48154-.2141 3.57564-.5984 1.0911-.3842 2.0356-.9445 2.8334-1.6866.7979-.7421 1.4227-1.6514 1.8773-2.7249.4547-1.0765.6805-2.3231.6805-3.7428v-10.07856c0-1.40208-.2288-2.64283-.6805-3.71932-.4546-1.07649-1.0794-1.97992-1.8773-2.71323z"/><path d="m32.5206 1.26807h-5.2886-6.1187v5.99256h5.7139l-.0205 20.19817v1.3405h.6893s.0176.0058.0293.0058h4.6873s.0205-.0058.0293-.0058h.6805v-.8272c0-.0205.0059-.0323.0059-.0528l.0205-20.65867h5.6905v-5.99256z"/><path d="m47.2645 8.36663c.1437-.35785.3461-.6717.6071-.94156.264-.26985.5779-.48398.9416-.64531.3666-.15839.7802-.23759 1.2407-.23759.4606 0 .8507.088 1.2173.26106.3667.17599.6747.40478.9299.69224.2552.28745.4487.61011.5837.96503.1349.35785.2024.72744.2024 1.10875l.0469 2.05325h5.9662v-2.2703c0-1.08236-.179-2.13832-.5368-3.17375-.3579-1.03249-.8976-1.95645-1.6221-2.76896-.7245-.80956-1.6426-1.46367-2.7572-1.95645-1.1146-.492783-2.4346-.739173-3.9599-.739173-1.3668 0-2.6164.214124-3.7457.645303-1.1293.42825-2.0972 1.02663-2.898 1.78927-.8037.76263-1.4285 1.66607-1.8743 2.70736-.4459 1.04129-.6688 2.16765-.6688 3.37614v11.53636c0 1.3199.2435 2.5108.7274 3.5668.484 1.0589 1.144 1.9535 1.98 2.6839.8359.7303 1.8098 1.2935 2.9214 1.6836 1.1147.3902 2.2997.5838 3.5551.5838s2.4287-.1936 3.5199-.5838c1.0882-.3901 2.0415-.9503 2.8511-1.6836.8125-.7304 1.3375-1.3728 1.8068-2.4229s.6981-2.3993.6981-3.7369v-2.6457h-5.9661l-.044 2.2849c0 .3989-.0675.7803-.2024 1.1469-.135.3667-.2376.6013-.4928.8858-.2552.2875-.5661.5134-.9298.6806-.3667.1672-.7803.2493-1.2408.2493s-.8829-.0821-1.2642-.2493-.7069-.3931-.9797-.6806c-.2699-.2874-.4781-.613-.6218-.9796-.1438-.3667-.2142-.748-.2142-1.144v-10.91744c0-.39599.0704-.77437.2142-1.13222z"/></g></svg>

<svg width="59" height="30" viewBox="0 0 59 30" fill="none" xmlns="http://www.w3.org/2000/svg">
<path d="M16.2671 3.52959C15.4693 2.79629 14.5219 2.23898 13.4219 1.85472C12.322 1.47341 11.1252 1.27395 9.83459 1.25635L1.29599 1.26221H0.410156V7.09639H6.55525L9.73486 7.09345C10.6266 7.09345 11.3452 7.35451 11.8878 7.87076C12.4305 8.38994 12.7003 9.17311 12.7003 10.2261V19.8735C12.7003 20.7505 12.4334 21.4838 11.8996 22.0734C11.3657 22.663 10.6442 22.9592 9.73486 22.9592H6.55525V12.1298H0.410156V27.6612V28.7993H1.92956V28.7934H9.85806C11.1487 28.7787 12.3396 28.5793 13.4337 28.195C14.5248 27.8108 15.4693 27.2505 16.2671 26.5084C17.065 25.7663 17.6898 24.857 18.1444 23.7835C18.5991 22.707 18.8249 21.4604 18.8249 20.0407V9.96214C18.8249 8.56006 18.5961 7.31931 18.1444 6.24282C17.6898 5.16633 17.065 4.2629 16.2671 3.52959Z" fill="white"/>
<path d="M32.5206 1.26807H27.232H21.1133V7.26063H26.8272L26.8067 27.4588V28.7993H27.496C27.496 28.7993 27.5136 28.8051 27.5253 28.8051H32.2126C32.2126 28.8051 32.2331 28.7993 32.2419 28.7993H32.9224V27.9721C32.9224 27.9516 32.9283 27.9398 32.9283 27.9193L32.9488 7.26063H38.6393V1.26807H32.5206Z" fill="white"/>
<path d="M47.2645 8.36663C47.4082 8.00878 47.6106 7.69493 47.8716 7.42507C48.1356 7.15522 48.4495 6.94109 48.8132 6.77976C49.1798 6.62137 49.5934 6.54217 50.0539 6.54217C50.5145 6.54217 50.9046 6.63017 51.2712 6.80323C51.6379 6.97922 51.9459 7.20801 52.2011 7.49547C52.4563 7.78292 52.6498 8.10558 52.7848 8.4605C52.9197 8.81835 52.9872 9.18794 52.9872 9.56925L53.0341 11.6225H59.0003V9.3522C59.0003 8.26984 58.8213 7.21388 58.4635 6.17845C58.1056 5.14596 57.5659 4.222 56.8414 3.40949C56.1169 2.59993 55.1988 1.94582 54.0842 1.45304C52.9696 0.960257 51.6496 0.713867 50.1243 0.713867C48.7575 0.713867 47.5079 0.927991 46.3786 1.35917C45.2493 1.78742 44.2814 2.3858 43.4806 3.14844C42.6769 3.91107 42.0521 4.81451 41.6063 5.8558C41.1604 6.89709 40.9375 8.02345 40.9375 9.23194V20.7683C40.9375 22.0882 41.181 23.2791 41.6649 24.3351C42.1489 25.394 42.8089 26.2886 43.6449 27.019C44.4808 27.7493 45.4547 28.3125 46.5663 28.7026C47.681 29.0928 48.866 29.2864 50.1214 29.2864C51.3768 29.2864 52.5501 29.0928 53.6413 28.7026C54.7295 28.3125 55.6828 27.7523 56.4924 27.019C57.3049 26.2886 57.8299 25.6462 58.2992 24.5961C58.7685 23.546 58.9973 22.1968 58.9973 20.8592V18.2135H53.0312L52.9872 20.4984C52.9872 20.8973 52.9197 21.2787 52.7848 21.6453C52.6498 22.012 52.5472 22.2466 52.292 22.5311C52.0368 22.8186 51.7259 23.0445 51.3622 23.2117C50.9955 23.3789 50.5819 23.461 50.1214 23.461C49.6609 23.461 49.2385 23.3789 48.8572 23.2117C48.4759 23.0445 48.1503 22.8186 47.8775 22.5311C47.6076 22.2437 47.3994 21.9181 47.2557 21.5515C47.1119 21.1848 47.0415 20.8035 47.0415 20.4075V9.49006C47.0415 9.09407 47.1119 8.71569 47.2557 8.35784L47.2645 8.36663Z" fill="white"/>
</svg>
